X:926
T:Polska efter Bleckå Anders
S:Efter Gössa Anders Andersson den yngre
S:Efter Bleckå Anders
D:Fiddle Tunes from Orsa (Swedish Folk Music 1) HURV-KRCD-24
Z:[[http://www.bluerose.karenlmyers.org/IncipitsPolskaOrsa2.html|Karen Myers (#2150)]]
Z:Upptecknad 5/2005
M:3/4
L:1/8
R:Polska
O:Orsa, Dalarna
K:C
a>g f2 e2 | d>c AB G2- | G2 (c/B/)c/d/ c>A | B/G/B A4 :|
|: A>^c d2 (cB/c/) | d>(e f/a/)f/d/ e>^c | (5A2 d2 e2 ^c2 d2 |
e2 (f/a/)f/d/ e>(g | b2) a>(^f a>)g |1 (e<^f) d2- d>(^c :|2 (e<^f) d4 |]
(:musicend:)
(:music:)
